X: 175
T:Trip to Kilburn,A (Black and Grey)
M:4/4
L:1/8
Q:180
A:English
K:C
A2 A2 d2 B2 |c4 A2 d2 |B4 G2 g2| B4 G4| A2 A2 d2 B2|c3 B A2 d2| B2 G2 Bc dB|A4 e4:|
M:4/4
|: a2 e2 fedc| a2 e2 fedc| g2d2 BcdB| g2d2 BcdB| a2 e2 fgag|agfe fedc| B2 G2 BcdB| A4 e4:|

